assets/logos/icons/dollars.svg

<svg height="24" viewBox="0 0 24 24" width="24" xmlns="http://www.w3.org/2000/svg"><path d="m13.3 6c1.7.3 2.5 1.4 2.5 1.4l-1.2 1.2s-.8-1-2.4-1c-1.3 0-2 .8-2 1.5 0 2.7 6.3 1 6.3 5.4 0 1.8-1.1 3.1-3.2 3.5v2h-2v-1.9c-2.3-.3-3.3-1.8-3.3-1.8l1.2-1.2s.9 1.4 3.1 1.4c1.5 0 2.4-.9 2.4-1.9 0-2.7-6.3-1-6.3-5.4-.1-1.6 1-2.9 2.9-3.2v-2h2z" fill="#492f5c" fill-rule="evenodd"/></svg>

<svg xmlns="http://www.w3.org/2000/svg" xmlns:xlink="http://www.w3.org/1999/xlink" width="24" height="24" viewBox="0 0 24 24">
  <defs>
    <path id="dollars-a" d="M13.3,6 C15,6.3 15.8,7.4 15.8,7.4 L14.6,8.6 C14.6,8.6 13.8,7.6 12.2,7.6 C10.9,7.6 10.2,8.4 10.2,9.1 C10.2,11.8 16.5,10.1 16.5,14.5 C16.5,16.3 15.4,17.6 13.3,18 L13.3,20 L11.3,20 L11.3,18.1 C9,17.8 8,16.3 8,16.3 L9.2,15.1 C9.2,15.1 10.1,16.5 12.3,16.5 C13.8,16.5 14.7,15.6 14.7,14.6 C14.7,11.9 8.4,13.6 8.4,9.2 C8.3,7.6 9.4,6.3 11.3,6 L11.3,4 L13.3,4 L13.3,6 Z"/>
  </defs>
  <use fill="#492F5C" fill-rule="evenodd" xlink:href="#dollars-a"/>
</svg>
